X:1
T:Seigneur Jésus Tu es présent - satb
T:Seigneur Jésus Tu es présent - satb
%%score [ 1 2 3 4 ]
L:1/8
Q:1/4=80
M:4/4
K:Bb
V:1 treble nm="Soprano" snm="S."
V:2 treble nm="Alto" snm="A."
V:3 treble-8 nm="Tenor" snm="T."
V:4 bass nm="Bass" snm="B."
V:1
 D2 | G2 G2 A2 A2 | B2 B2 ^A2 A2 | G2 G2 G2 ^F2 | G6 | D2 | E2 E2 G2 G2 | F2 F2 D2 D2 | %8
 B2 B2 (^AG) =A2 | G6 z2 :| %10
V:2
 D2 | D2 D2 F2 F2 | F2 F2 F2 F2 | G2 D2 D2 D2 | D6 | D2 | C2 C2 D2 D2 | C2 C2 D2 D2 | %8
 G2 G2 ^AG F2 | D6 z2 :| %10
V:3
 d2 | B2 B2 c2 c2 | B2 B2 d2 d2 | B2 B2 A2 A2 | B6 | d2 | G2 G2 G2 G2 | A2 A2 F2 F2 | B2 B2 d2 d2 | %9
 B6 z2 :| %10
V:4
 D,2 | G,2 G,2 F,2 F,2 | D,2 D,2 D,2 D,2 | G,,2 G,,2 D,2 D,2 | G,,6 | D,2 | C,2 C,2 B,,2 B,,2 | %7
w: 1.Sei-|gneur Jé- sus tu|es pré- sent dans|ton eu- cha- ris-|tie,|1.dans|cette hos- tie nous|
w: 2.Toi|qui es Dieu, toi|qui es roi, tu|nous a tout don-|né,|2.Tu|es le Christ, tu|
w: 3.Dans|ta pas- sion tu|as por- té cha-|cun de nos pé-|chés,|3.Ton|sang ver- sé nous|
w: 5.Oui|nous croy- ons à|la vic- toire par|ta ré- sur- rec-|tion,|5.Oui|nous croy- ons que|
w: 8.Tu|es la vi- gne|vé- ri- ta- ble,et|tu nous é- ta-|blis|8.pour|qu'en ta grâ- ce|
w: 9.Tu|nous ap- pel- les|tes A- mis et|non plus ser- vi-|teurs|9.car|en toi res- plen-|
w: 10.C'est|à l'a- mour que|nous au- rons pour|cha- cun de nos|frères,|10.que|tous les hom- mes|
w: 11.Tu|es Sei- gneur le|Bon Pas- teur, tu|con- nais tes bre-|bis,|11.Nous|te sui- vons car|
w: 12.Reste|a- vec nous quand|vient le soir, ô|mon Dieu, mon Sei-|gneur!|12.Au|plus pro- fond de|
 A,,2 A,,2 B,,2 B,,2 | G,,2 G,,2 D,2 D,2 | G,,6 z2 :| %10
w: t'a- do- rons et|nous te ma- gni-|fions.|
w: es l'a- gneau im-|mo- lé sur la|croix.|
w: a la- vés et|nous a ra- che-|tés.|
w: dans ta gloire à|ja- mais nous vi-|vrons.|
w: nous vi- vions et|nous por- tions du|fruit.|
w: dit l'A- mour qui|chas- se tou- te|peur.|
w: con- naî- tront et|croi- ront dans le|Père.|
w: en nos coeurs, ta|voix a re- ten-|ti.|
w: no- tre coeur, é-|ta- blis ta de-|meure!|

